raw/symbols/amp.svg

<svg width="42" height="42" viewBox="0 0 42 42" fill="none" xmlns="http://www.w3.org/2000/svg">
<circle cx="21" cy="21" r="20" fill="#E42E95"/>
<path fill-rule="evenodd" clip-rule="evenodd" d="M20.1713 12.6647C20.0089 12.7947 19.8139 13.0222 19.6839 13.4446C19.5539 13.8671 18.839 15.9468 17.9291 18.5465H24.0059C23.096 15.9468 22.3811 13.8671 22.2511 13.4446C22.1211 13.0222 21.9261 12.7947 21.7637 12.6647C21.6012 12.5347 21.3737 12.4372 20.9513 12.4372C20.5288 12.4372 20.3338 12.5347 20.1713 12.6647ZM11.2024 18.5465H15.3294C16.3368 15.5894 17.2142 13.1196 17.3442 12.6647C17.6041 11.8848 18.0266 11.2024 18.6765 10.7149C19.3264 10.2275 20.1064 10 20.9188 10C21.7312 10 22.5111 10.195 23.161 10.7149C23.8109 11.2024 24.2334 11.8848 24.4934 12.6647C24.6558 13.1196 25.5007 15.5569 26.5081 18.5465H30.7001C31.3826 18.5465 31.935 19.099 31.935 19.7814C31.935 20.4638 31.3826 21.0163 30.7001 21.0163H27.418H24.8508H17.0842H14.517H11.2024C10.5199 21.0163 10 20.4638 10 19.7814C10 19.099 10.5524 18.5465 11.2024 18.5465ZM11.2024 23.421C10.5199 23.421 10 23.9734 10 24.6558C10 25.3383 10.5524 25.8907 11.2024 25.8907H12.8272L12.1773 27.7755L11.5273 29.6603L11.2674 30.3752C11.0399 31.0251 11.3973 31.7075 12.0148 31.935C12.6647 32.1625 13.3471 31.805 13.5746 31.1876L13.8346 30.4727L14.4845 28.5879C14.7445 27.808 15.0694 26.8981 15.4269 25.8907H26.5406C26.8656 26.8656 27.1905 27.808 27.483 28.5879L28.1329 30.4727L28.3929 31.1876C28.6204 31.8375 29.3028 32.1625 29.9527 31.935C30.6027 31.7075 30.9276 31.0251 30.7001 30.3752L30.4402 29.6603L29.7903 27.7755L29.1403 25.8907H30.7651C31.4476 25.8907 32 25.3383 32 24.6558C32 23.9734 31.4476 23.421 30.7651 23.421H28.2954H25.7282H16.3043H13.7371H11.2024ZM29.4978 30.7326L30.6352 30.3427C30.6352 30.3427 30.6352 30.3427 29.4978 30.7326ZM29.4978 30.7326C28.3604 31.1226 28.3604 31.1226 28.3604 31.1226L29.4978 30.7326ZM12.4372 30.7326L13.5746 31.1226C13.5746 31.1226 13.5746 31.1226 12.4372 30.7326ZM12.4372 30.7326C11.2999 30.3427 11.2999 30.3427 11.2999 30.3427L12.4372 30.7326Z" fill="#F3F3F3"/>
</svg>

<svg xmlns="http://www.w3.org/2000/svg" width="42" height="42" fill="none"><circle cx="21" cy="21" r="20" fill="#E42E95"/><path fill="#F3F3F3" fill-rule="evenodd" d="M20.171 12.665c-.162.13-.357.357-.487.78-.13.422-.845 2.502-1.755 5.102h6.077c-.91-2.6-1.625-4.68-1.755-5.102-.13-.423-.325-.65-.487-.78-.163-.13-.39-.228-.813-.228-.422 0-.617.098-.78.228Zm-8.969 5.882h4.127c1.008-2.958 1.885-5.427 2.015-5.882.26-.78.683-1.463 1.332-1.95.65-.488 1.43-.715 2.243-.715.812 0 1.592.195 2.242.715.65.487 1.072 1.17 1.332 1.95a525.77 525.77 0 0 1 2.015 5.882H30.7a1.234 1.234 0 1 1 0 2.47H11.202c-.682 0-1.202-.553-1.202-1.236 0-.682.552-1.234 1.202-1.234Zm0 4.874c-.682 0-1.202.552-1.202 1.235 0 .682.552 1.235 1.202 1.235h1.625l-.65 1.885-.65 1.884-.26.715c-.227.65.13 1.332.748 1.56.65.228 1.332-.13 1.56-.747l.26-.715.65-1.885c.26-.78.584-1.69.942-2.697H26.54c.325.975.65 1.917.942 2.697l.65 1.885.26.715c.227.65.91.975 1.56.747.65-.227.975-.91.747-1.56l-.26-.715-.65-1.884-.65-1.885h1.625a1.234 1.234 0 1 0 0-2.47H11.202Zm18.296 7.312 1.137-.39-1.137.39Zm0 0-1.138.39 1.138-.39Zm-17.06 0 1.137.39-1.138-.39Zm0 0-1.138-.39 1.137.39Z" clip-rule="evenodd"/></svg>
